trunk/WorldWind/resources/milstd2525/icons/ems/enoaaj---------.svg

<?xml version="1.0" encoding="UTF-8" standalone="no"?>
<!--
Copyright (C) 2012 United States Government as represented by the Administrator of the
National Aeronautics and Space Administration.
All Rights Reserved.
-->

<!--
MIL-STD-2525 tactical symbol icon image. During icon composition this image is multiplied by the desired frame color 
(e.g. black), then drawn on top of the frame and fill.
-->

<svg
   xmlns:dc="http://purl.org/dc/elements/1.1/"
   xmlns:cc="http://creativecommons.org/ns#"
   xmlns:rdf="http://www.w3.org/1999/02/22-rdf-syntax-ns#"
   xmlns:svg="http://www.w3.org/2000/svg"
   xmlns="http://www.w3.org/2000/svg"
   xmlns:sodipodi="http://sodipodi.sourceforge.net/DTD/sodipodi-0.dtd"
   xmlns:inkscape="http://www.inkscape.org/namespaces/inkscape"
   height="400px"
   viewBox="0 0 400 400"
   width="400px"
   id="svg2"
   version="1.1"
   inkscape:version="0.48.2 r9819"
   sodipodi:docname="enoaaj---------.svg">
  <metadata
     id="metadata18">
    <rdf:RDF>
      <cc:Work
         rdf:about="">
        <dc:format>image/svg+xml</dc:format>
        <dc:type
           rdf:resource="http://purl.org/dc/dcmitype/StillImage" />
      </cc:Work>
    </rdf:RDF>
  </metadata>
  <defs
     id="defs16" />
  <sodipodi:namedview
     pagecolor="#ffffff"
     bordercolor="#666666"
     borderopacity="1"
     objecttolerance="10"
     gridtolerance="10"
     guidetolerance="10"
     inkscape:pageopacity="0"
     inkscape:pageshadow="2"
     inkscape:window-width="640"
     inkscape:window-height="480"
     id="namedview14"
     showgrid="false"
     inkscape:zoom="0.59"
     inkscape:cx="200"
     inkscape:cy="200"
     inkscape:window-x="269"
     inkscape:window-y="129"
     inkscape:window-maximized="0"
     inkscape:current-layer="svg2" />
  <g
     transform="matrix(100,0,0,100,73,80)"
     id="g4"
     style="stroke:#000000;stroke-width:0.06;stroke-miterlimit:4;stroke-opacity:1;stroke-dasharray:0.12, 0.06;stroke-dashoffset:0">
    <path
       inkscape:connector-curvature="0"
       d="m 1.30352,1.52338 0,-0.02032 c 0,-0.02174 0.01566,-0.04063 0.03556,-0.04063 0.02397,0 0.05079,0.04487 0.05079,0.07619 l 0,0.01016 c 0,0.01979 -0.01084,0.04063 -0.03048,0.04063 -0.03047,0 -0.05587,-0.03901 -0.05587,-0.06603 z M 0.912414,0.832593 1.04448,0.883384 1.04484,0.699478 1.1867,0.746242 l 0,0.17778 c 0,0.015819 0.11656,0.056154 0.13714,0.060953 L 1.32349,1.18404 1.1867,1.13735 1.18693,1.32473 1.04448,1.26942 l 0,-0.17778 c 0,-0.01675 -0.109739,-0.05909 -0.132066,-0.06095 z M 0.810827,1.94496 1.47622,2.17353 1.47526,0.57632 0.810827,0.350056 l 0,1.594914 z"
       style="fill:#ffffff;stroke:#000000;stroke-width:0.06;stroke-miterlimit:4;stroke-opacity:1;stroke-dasharray:0.12, 0.06;stroke-dashoffset:0"
       id="path6" />
    <path
       inkscape:connector-curvature="0"
       d="M 0.912409,1.03069 C 0.934736,1.03255 1.04447,1.07489 1.04447,1.09164 l 0,0.17778 0.14245,0.05531 -2.3e-4,-0.18737 0.1368,0.04668 3.4e-4,-0.199062 C 1.30325,0.980179 1.18669,0.939844 1.18669,0.924025 l 0,-0.17778 L 1.04484,0.699481 1.04447,0.883387 0.912409,0.832596 z"
       style="fill:#000000;stroke:#000000;stroke-width:0.06;stroke-miterlimit:4;stroke-opacity:1;stroke-dasharray:0.12, 0.06;stroke-dashoffset:0"
       id="path8" />
    <path
       inkscape:connector-curvature="0"
       d="m 1.30352,1.52338 c 0,0.02702 0.0254,0.06603 0.05587,0.06603 0.01964,0 0.03048,-0.02084 0.03048,-0.04063 l 0,-0.01016 c 0,-0.03132 -0.02682,-0.07619 -0.05079,-0.07619 -0.0199,0 -0.03556,0.01889 -0.03556,0.04064 z"
       style="fill:#000000;stroke:#000000;stroke-width:0.06;stroke-miterlimit:4;stroke-opacity:1;stroke-dasharray:0.12, 0.06;stroke-dashoffset:0"
       id="path10" />
    <path
       inkscape:connector-curvature="0"
       d="M 0.810823,0.350055 1.47526,0.576319 1.47621,2.17353 0.810823,1.94496 l 0,-1.594908 z M 0.770189,1.97544 1.51685,2.23448 l 0,-0.26412 0.24381,0 0,-1.686334 -0.990472,0 0,1.691414 z"
       style="fill:#000000;stroke:#000000;stroke-width:0.06;stroke-miterlimit:4;stroke-opacity:1;stroke-dasharray:0.12, 0.06;stroke-dashoffset:0"
       id="path12" />
  </g>
</svg>

<?xml version="1.0"?>
<!--
Copyright (C) 2012 United States Government as represented by the Administrator of the
National Aeronautics and Space Administration.
All Rights Reserved.
-->

<!DOCTYPE svg PUBLIC "-//W3C//DTD SVG 1.1//EN" "http://www.w3.org/Graphics/SVG/1.1/DTD/svg11.dtd" >
<!--
MIL-STD-2525 tactical symbol icon image. During icon composition this image is multiplied by the desired frame color 
(e.g. black), then drawn on top of the frame and fill.
-->
<svg xmlns:xlink="http://www.w3.org/1999/xlink" height="400px" viewBox="0 0 400 400" width="400px"><g transform="scale(100) translate(0.73 0.8)"><path d="M1.30352 1.52338 L1.30352 1.50306 C1.30352 1.48132 1.31918 1.46243 1.33908 1.46243     C1.36305 1.46243 1.38987 1.5073 1.38987 1.53862 L1.38987 1.54878 C1.38987     1.56857 1.37903 1.58941 1.35939 1.58941 C1.32892 1.58941 1.30352 1.5504 1.30352     1.52338 zM0.912414 0.832593 L1.04448 0.883384 L1.04484 0.699478 L1.1867     0.746242 L1.1867 0.924022 C1.1867 0.939841 1.30326 0.980176 1.32384 0.984975     L1.32349 1.18404 L1.1867 1.13735 L1.18693 1.32473 L1.04448 1.26942 L1.04448     1.09164 C1.04448 1.07489 0.934741 1.03255 0.912414 1.03069 zM0.810827 1.94496     L1.47622 2.17353 L1.47526 0.57632 L0.810827 0.350056 L0.810827 1.94497 z" style="fill:rgb(255,255,255)"/><path d="M0.912409 1.03069 C0.934736 1.03255 1.04447 1.07489 1.04447 1.09164 L1.04447 1.26942     L1.18692 1.32473 L1.18669 1.13736 L1.32349 1.18404 L1.32383 0.984978 C1.30325     0.980179 1.18669 0.939844 1.18669 0.924025 L1.18669 0.746245 L1.04484     0.699481 L1.04447 0.883387 L0.912409 0.832596 z" style="fill:rgb(0,0,0)"/><path d="M1.30352 1.52338 C1.30352 1.5504 1.32892 1.58941 1.35939 1.58941 C1.37903 1.58941     1.38987 1.56857 1.38987 1.54878 L1.38987 1.53862 C1.38987 1.5073 1.36305 1.46243     1.33908 1.46243 C1.31918 1.46243 1.30352 1.48132 1.30352 1.50307 z" style="fill:rgb(0,0,0)"/><path d="M0.810823 0.350055 L1.47526 0.576319 L1.47621 2.17353 L0.810823 1.94496 L0.810823     0.350052 zM0.770189 1.97544 L1.51685 2.23448 L1.51685 1.97036 L1.76066 1.97036     L1.76066 0.284026 L0.770188 0.284026 L0.770188 1.97544 z" style="fill:rgb(0,0,0)"/></g></svg>
